Adwaita++-Dark/status/symbolic/audio-volume-overamplified-symbolic.svg

<svg height="16" width="16" xmlns="http://www.w3.org/2000/svg">
  <path d="m8 1-4 4h-3v6h3l4 4zm5 1c-.554 0-1 .446-1 1v10c0 .554.446 1 1 1s1-.446 1-1v-10c0-.554-.446-1-1-1zm-3 2c-.554 0-1 .446-1 1v6c0 .554.446 1 1 1s1-.446 1-1v-6c0-.554-.446-1-1-1z" fill="#e6ddff"/>
</svg>

<svg xmlns="http://www.w3.org/2000/svg" width="16" height="16" version="1.1">
 <path style="fill:#E6DDFF" d="M 8,1 4,5 H 1 v 6 h 3 l 4,4 z m 5,1 c -0.554,0 -1,0.446 -1,1 v 10 c 0,0.554 0.446,1 1,1 0.554,0 1,-0.446 1,-1 V 3 C 14,2.446 13.554,2 13,2 Z M 10,4 C 9.446,4 9,4.446 9,5 v 6 c 0,0.554 0.446,1 1,1 0.554,0 1,-0.446 1,-1 V 5 C 11,4.446 10.554,4 10,4 Z"/>
</svg>
